svgs/duotone/cat-space.svg

<svg xmlns="http://www.w3.org/2000/svg" viewBox="0 0 640 512"><!--! Font Awesome Pro 6.3.0 by @fontawesome - https://fontawesome.com License - https://fontawesome.com/license (Commercial License) Copyright 2023 Fonticons, Inc. --><defs><style>.fa-secondary{opacity:.4}</style></defs><path class="fa-primary" d="M291.9 194.3c-35.84 5.342-91.78 23.26-131.9 83.64V192c-.0586-52.99-43.01-95.94-96-96C46.33 96 32 110.3 32 128c0 17.67 14.33 32 32 32c17.66 .0234 31.98 14.34 32 32v256c.0332 35.33 28.67 63.96 64 64h175.1c8.832 .0039 15.1-7.162 16-15.99V480c0-17.67-14.33-32-32-32H287.1l128-96v144c-.0039 8.83 7.159 15.99 15.99 16h32.01c8.832 .0039 15.1-7.159 16-15.99V316.8C469.5 318.9 458.7 319.1 448 320C371.4 320 307.6 266.2 291.9 194.3zM480 112h-64l-64-64v128c0 53.02 42.98 96 96 96s96-42.98 96-96v-128L480 112zM408 192c-8.836 0-16.02-7.164-16.02-16S399.2 160 408 160c8.838 0 16 7.164 16 16C424 184.8 416.8 191.1 408 192zM488 192c-8.836 0-16.02-7.164-16.02-16S479.2 160 488 160s16 7.164 16 16C504 184.8 496.9 191.1 488 192z"/><path class="fa-secondary" d="M285 59.24L245.3 42.64L228.7 2.986C227.4 .3529 224.3-.752 221.6 .5566C220.6 1.072 219.7 1.945 219.2 2.986L202.6 42.64L162.1 59.24C160.3 60.56 159.2 63.76 160.6 66.39c.5156 1.029 1.377 1.85 2.407 2.366L202.6 85.36l16.6 39.65c1.307 2.635 4.489 3.738 7.123 2.434C227.4 126.9 228.2 126.1 228.7 125L245.3 85.36l39.65-16.6C287.6 67.44 288.7 64.24 287.4 61.61C286.9 60.58 286 59.76 285 59.24zM448 0c-88.37 0-160 71.63-160 160s71.63 160 160 160s159.1-71.63 159.1-160S536.4 .002 448 0zM544 176c0 53.02-42.98 96-96 96s-96-42.98-96-96v-128l64 64h64l64-64V176z"/></svg>

<svg xmlns="http://www.w3.org/2000/svg" viewBox="0 0 640 512"><!-- Font Awesome Pro 6.0.0-alpha2 by @fontawesome - https://fontawesome.com License - https://fontawesome.com/license (Commercial License) --><defs><style>.fa-secondary{opacity:.4}</style></defs><path d="M285.032 59.229L245.317 42.67L228.758 2.957C227.451 0.324 224.256 -0.752 221.621 0.557C220.58 1.072 219.737 1.916 219.219 2.957L202.656 42.67L162.947 59.229C160.313 60.549 159.246 63.756 160.566 66.391C161.082 67.42 161.918 68.254 162.947 68.77L202.656 85.33L219.219 125.041C220.526 127.676 223.719 128.752 226.354 127.447C227.397 126.93 228.242 126.084 228.758 125.041L245.317 85.33L285.032 68.77C287.666 67.449 288.733 64.244 287.413 61.609C286.897 60.58 286.061 59.744 285.032 59.229ZM448.003 0H448.001C359.635 0 288 71.635 288 160S359.635 320 448.001 320S608.002 248.365 608.002 160S536.369 0.002 448.003 0ZM544.001 176C544.001 229.02 501.021 272 448.001 272S352.001 229.02 352.001 176V48L416.001 112H480.001L544.001 48V176Z" class="fa-secondary"/><path d="M291.89 194.303V194.314C256.053 199.656 200.102 217.572 160 277.953V192C159.942 139.006 116.994 96.059 64 96C46.326 96 32 110.328 32 128C32 145.674 46.326 160 64 160C81.662 160.023 95.977 174.336 96 192V448C96.033 483.332 124.668 511.965 160 512H335.999C344.831 512.004 351.995 504.85 351.999 496.018V480C351.999 462.326 337.673 448 319.999 448H287.999L415.999 352V496C415.995 504.83 423.15 511.994 431.982 512H464C472.832 512.004 479.996 504.85 480 496.018V316.775C469.468 318.918 458.748 319.998 447.999 320C371.437 320 307.62 266.145 291.89 194.303ZM480 112H415.999L351.999 48V176C351.999 229.02 394.98 272 447.999 272S544 229.02 544 176V48L480 112ZM408.019 192H407.999C399.163 192 391.999 184.836 391.999 176S399.163 160 407.999 160C416.837 160 423.999 167.164 423.999 176C424.005 184.832 416.849 191.996 408.019 192ZM488.019 192H488C479.164 192 472 184.836 472 176S479.164 160 488 160S504 167.164 504 176C504.005 184.832 496.849 191.996 488.019 192Z" class="fa-primary"/></svg>
